X:1
T:Title
%%score ( 1 2 ) { 3 | ( 4 5 ) }
L:1/8
Q:1/4=114
M:4/4
K:G
V:1 treble nm="Grand Piano, Unnamed-000"
V:2 treble 
V:3 bass nm="Choir Pad, Unnamed-001"
V:4 bass 
V:5 bass 
V:1
 [B,D]2 [CE]2 D3 [DG] | GF[DG][EA] [DB]2 [DA]2 | [DB]2 [CG]2 E2 [Ec]2 | [DB]2 [CA]2 [B,G]4 | %4
w: By~John~Hughes~(1873\-1932) * * *||||
 [B,D]2 [CE]2 D3 [DG] | GF[DG][EA] [DB]2 [DA]2 | [DB]2 [Ec]2 [Dd]2 cA | [DG]2 [DF]2 [DG]4 | %8
w: ||||
 [FA]3 [GB] [Ac]2 [DA]2 | z4 .B2 z2 | [Gd]3 [Gd] [Fc][GB][DA]G | [Fd]8 | z4 .B2 .c2 | %13
w: |||||
 [DG]2 [DF]2 [DG]4- | [DG]4 z4 |] %15
w: ||
V:2
 x8 | D2 z2 z4 | x8 | x8 | x8 | D2 z2 z4 | z4 z2 E2 | x8 | x8 | [GB]3 [Ac] d-[Ad] [GB]2 | x8 | x8 | %12
 [Gd]3 [Fc] G-[Gd]E-[EA] | x8 | x8 |] %15
V:3
 G,2 G,2 .G,4 | B,A, G,2 G,2 F,2 | G,2 G,2 G,2 G,2 | G,2 F,2 G,4 | G,2 G,2 .G,4 | %5
 B,A, G,2 G,2 F,2 | G,2 G,2 G,2 G,C | B,2 A,2 B,4 | C3 B, A,G,F,A, | D3 C B,2 D2 | D3 D DDDD | D8 | %12
 D3 D D[K:bass]B,G,C | B,2 A,C B,4- | B,4 z4 |] %15
V:4
 G,,2 C,2 B,,2 z B, | G,,A,,B,,C, D,2 D,2 | z2 E,2 C,2 A,,2 | D,2 D,2 G,,4 | G,,2 C,2 B,,2 z B, | %5
 G,,A,,B,,C, D,2 D,2 | z2 E,2 B,,2 C,2 | D,2 D,2 G,,4 | D,3 D, D,E, z2 | G,3 D, G,A, B,2 | %10
 B,3 B, A,G,F,E, | D,8 | B,3 A, G,2 C,2 | D,2 D,2 G,4- | G,4 z4 |] %15
V:5
 z4 z2 A,,2 | x8 | x8 | x8 | z4 z2 B,,2 | x8 | x8 | x8 | x8 | x8 | x8 | x8 | x8 | x8 | x8 |] %15

